Sources/FrostedUI/Resources/Icons.xcassets/infoCircle16.imageset/info-circle-16.svg

<svg width="16" height="16" viewBox="0 0 16 16" fill="none" xmlns="http://www.w3.org/2000/svg" data-fui-icon="true">
  <path
    d="M8 0C12.4183 0 16 3.58172 16 8C16 12.4183 12.4183 16 8 16C3.58172 16 0 12.4183 0 8C0 3.58172 3.58172 0 8 0ZM8 1.5C4.41015 1.5 1.5 4.41015 1.5 8C1.5 11.5899 4.41015 14.5 8 14.5C11.5899 14.5 14.5 11.5899 14.5 8C14.5 4.41015 11.5899 1.5 8 1.5ZM8 7C8.41421 7 8.75 7.33579 8.75 7.75V10.5H9.25C9.66417 10.5001 10 10.8358 10 11.25C9.99993 11.6641 9.66413 11.9999 9.25 12H6.75C6.33583 12 6.00007 11.6642 6 11.25C6 10.8358 6.33579 10.5 6.75 10.5H7.25V8.5H6.75C6.33579 8.5 6 8.16421 6 7.75C6 7.33579 6.33579 7 6.75 7H8ZM8 4.00391C8.55224 4.00391 8.99993 4.45168 9 5.00391C9 5.55619 8.55228 6.00391 8 6.00391C7.44772 6.00391 7 5.55619 7 5.00391C7.00007 4.45168 7.44776 4.00391 8 4.00391Z"
    fill="currentColor"
  />
</svg>

<svg xmlns="http://www.w3.org/2000/svg" width="16" height="16" fill="none" data-fui-icon="true" viewBox="0 0 16 16"><path fill="currentColor" d="M8 0a8 8 0 1 1 0 16A8 8 0 0 1 8 0m0 1.5a6.5 6.5 0 1 0 0 13 6.5 6.5 0 0 0 0-13M8 7a.75.75 0 0 1 .75.75v2.75h.5a.75.75 0 0 1 0 1.5h-2.5a.75.75 0 0 1 0-1.5h.5v-2h-.5a.75.75 0 0 1 0-1.5zm0-2.996a1 1 0 1 1 0 2 1 1 0 0 1 0-2"/></svg>
